assets/icons/carriage/ABTEILKLEINKIND.svg

<svg width="34" height="34" viewBox="0 0 34 34" fill="none" xmlns="http://www.w3.org/2000/svg">
<g clip-path="url(#clip0_145_2)">
<rect width="34" height="34" rx="17" fill="#414141"/>
<path d="M20.3333 16.6667C19.8667 16.6667 19.4722 16.5056 19.15 16.1833C18.8278 15.8611 18.6667 15.4667 18.6667 15C18.6667 14.5333 18.8278 14.1389 19.15 13.8167C19.4722 13.4944 19.8667 13.3333 20.3333 13.3333C20.8 13.3333 21.1944 13.4944 21.5167 13.8167C21.8389 14.1389 22 14.5333 22 15C22 15.4667 21.8389 15.8611 21.5167 16.1833C21.1944 16.5056 20.8 16.6667 20.3333 16.6667ZM13.6667 16.6667C13.2 16.6667 12.8056 16.5056 12.4833 16.1833C12.1611 15.8611 12 15.4667 12 15C12 14.5333 12.1611 14.1389 12.4833 13.8167C12.8056 13.4944 13.2 13.3333 13.6667 13.3333C14.1333 13.3333 14.5278 13.4944 14.85 13.8167C15.1722 14.1389 15.3333 14.5333 15.3333 15C15.3333 15.4667 15.1722 15.8611 14.85 16.1833C14.5278 16.5056 14.1333 16.6667 13.6667 16.6667ZM17 23.6667C15.6667 23.6667 14.4611 23.3 13.3833 22.5667C12.3056 21.8333 11.5111 20.8667 11 19.6667H23C22.4889 20.8667 21.6944 21.8333 20.6167 22.5667C19.5389 23.3 18.3333 23.6667 17 23.6667ZM17 29C15.3333 29 13.7722 28.6833 12.3167 28.05C10.8611 27.4167 9.59444 26.5611 8.51667 25.4833C7.43889 24.4056 6.58333 23.1389 5.95 21.6833C5.31667 20.2278 5 18.6667 5 17C5 15.3333 5.31667 13.7722 5.95 12.3167C6.58333 10.8611 7.43889 9.59444 8.51667 8.51667C9.59444 7.43889 10.8611 6.58333 12.3167 5.95C13.7722 5.31667 15.3333 5 17 5C18.6667 5 20.2278 5.31667 21.6833 5.95C23.1389 6.58333 24.4056 7.43889 25.4833 8.51667C26.5611 9.59444 27.4167 10.8611 28.05 12.3167C28.6833 13.7722 29 15.3333 29 17C29 18.6667 28.6833 20.2278 28.05 21.6833C27.4167 23.1389 26.5611 24.4056 25.4833 25.4833C24.4056 26.5611 23.1389 27.4167 21.6833 28.05C20.2278 28.6833 18.6667 29 17 29ZM17 26.3333C19.5778 26.3333 21.7778 25.4222 23.6 23.6C25.4222 21.7778 26.3333 19.5778 26.3333 17C26.3333 14.4222 25.4222 12.2222 23.6 10.4C21.7778 8.57778 19.5778 7.66667 17 7.66667H16.6C16.4667 7.66667 16.3333 7.68889 16.2 7.73333C16.0667 7.86667 15.9778 8.01111 15.9333 8.16667C15.8889 8.32222 15.8667 8.48889 15.8667 8.66667C15.8667 9.13333 16.0278 9.52778 16.35 9.85C16.6722 10.1722 17.0667 10.3333 17.5333 10.3333C17.7333 10.3333 17.9167 10.3 18.0833 10.2333C18.25 10.1667 18.4222 10.1333 18.6 10.1333C18.8667 10.1333 19.0889 10.2333 19.2667 10.4333C19.4444 10.6333 19.5333 10.8667 19.5333 11.1333C19.5333 11.6444 19.2944 11.9722 18.8167 12.1167C18.3389 12.2611 17.9111 12.3333 17.5333 12.3333C16.5333 12.3333 15.6722 11.9722 14.95 11.25C14.2278 10.5278 13.8667 9.66667 13.8667 8.66667V8.46667C13.8667 8.4 13.8778 8.31111 13.9 8.2C12.0556 8.86667 10.5556 9.98889 9.4 11.5667C8.24444 13.1444 7.66667 14.9556 7.66667 17C7.66667 19.5778 8.57778 21.7778 10.4 23.6C12.2222 25.4222 14.4222 26.3333 17 26.3333Z" fill="white"/>
</g>
<defs>
<clipPath id="clip0_145_2">
<rect width="34" height="34" fill="white"/>
</clipPath>
</defs>
</svg>

<svg xmlns="http://www.w3.org/2000/svg" width="34" height="34" fill="none"><g clip-path="url(#a)"><rect width="34" height="34" fill="#414141" rx="17"/><path fill="#fff" d="M20.333 16.667a1.61 1.61 0 0 1-1.183-.484A1.61 1.61 0 0 1 18.667 15c0-.467.16-.861.483-1.183a1.61 1.61 0 0 1 1.183-.484c.467 0 .861.161 1.184.484.322.322.483.716.483 1.183 0 .467-.161.861-.483 1.183a1.61 1.61 0 0 1-1.184.484Zm-6.666 0a1.61 1.61 0 0 1-1.184-.484A1.61 1.61 0 0 1 12 15c0-.467.161-.861.483-1.183a1.61 1.61 0 0 1 1.184-.484c.466 0 .86.161 1.183.484.322.322.483.716.483 1.183 0 .467-.16.861-.483 1.183a1.61 1.61 0 0 1-1.183.484Zm3.333 7c-1.333 0-2.539-.367-3.617-1.1a6.536 6.536 0 0 1-2.383-2.9h12a6.536 6.536 0 0 1-2.383 2.9c-1.078.733-2.284 1.1-3.617 1.1ZM17 29c-1.667 0-3.228-.317-4.683-.95a12.196 12.196 0 0 1-3.8-2.567 12.196 12.196 0 0 1-2.567-3.8C5.317 20.228 5 18.667 5 17c0-1.667.317-3.228.95-4.683a12.197 12.197 0 0 1 2.567-3.8 12.197 12.197 0 0 1 3.8-2.567C13.772 5.317 15.333 5 17 5c1.667 0 3.228.317 4.683.95a12.196 12.196 0 0 1 3.8 2.567 12.196 12.196 0 0 1 2.567 3.8c.633 1.455.95 3.016.95 4.683 0 1.667-.317 3.228-.95 4.683a12.195 12.195 0 0 1-2.567 3.8 12.195 12.195 0 0 1-3.8 2.567c-1.455.633-3.016.95-4.683.95Zm0-2.667c2.578 0 4.778-.91 6.6-2.733 1.822-1.822 2.733-4.022 2.733-6.6 0-2.578-.91-4.778-2.733-6.6-1.822-1.822-4.022-2.733-6.6-2.733h-.4c-.133 0-.267.022-.4.066a1.004 1.004 0 0 0-.267.434 1.814 1.814 0 0 0-.066.5c0 .466.16.86.483 1.183a1.61 1.61 0 0 0 1.183.483c.2 0 .384-.033.55-.1.167-.066.34-.1.517-.1.267 0 .489.1.667.3.177.2.266.434.266.7 0 .511-.239.84-.716.984-.478.144-.906.216-1.284.216-1 0-1.86-.36-2.583-1.083-.722-.722-1.083-1.583-1.083-2.583v-.2c0-.067.01-.156.033-.267a9.432 9.432 0 0 0-4.5 3.367C8.244 13.144 7.667 14.956 7.667 17c0 2.578.91 4.778 2.733 6.6 1.822 1.822 4.022 2.733 6.6 2.733Z"/></g><defs><clipPath id="a"><path fill="#fff" d="M0 0h34v34H0z"/></clipPath></defs></svg>
